X:10937
T:Miss McLeod's Reel
T:Mrs. MacLeod of Raasay
M:4/4
A:Scotland
R:reel
Z:Ireland around the turn of the century.
K:G
BA|"G"G2 BG dGBG|~B2 BA BcBA|G2 BG dGBG|"D"A2 AG AcBA|
"G"~G2 BG dGBG|~B2 BA Bcd2|"C"efed Bdef|"D"gedB Ac:|
BA|"G"G2 gf edeg|B2 BA BcBA|G2 gf edeg|"D"A2 AG AcBA|
"G"G2 gf edeg|B2 BA Bcd2 |"C"efed Bdef|1"D"gedB Ac:|2"D"gedB A2 |
